app/component-library/components/Icons/Icon/assets/document-code.svg

<svg width="24" height="24" viewBox="0 0 24 24" fill="none" xmlns="http://www.w3.org/2000/svg">
<path d="M16.2812 2H8.28125C4.78125 2 3.28125 4 3.28125 7V17C3.28125 20 4.78125 22 8.28125 22H16.2812C19.7812 22 21.2812 20 21.2812 17V7C21.2812 4 19.7812 2 16.2812 2ZM10.8112 16.47C11.1012 16.76 11.1012 17.24 10.8112 17.53C10.6612 17.68 10.4712 17.75 10.2812 17.75C10.0913 17.75 9.90125 17.68 9.75125 17.53L7.75125 15.53C7.46125 15.24 7.46125 14.76 7.75125 14.47L9.75125 12.47C10.0413 12.18 10.5212 12.18 10.8112 12.47C11.1012 12.76 11.1012 13.24 10.8112 13.53L9.34125 15L10.8112 16.47ZM16.8113 15.53L14.8112 17.53C14.6612 17.68 14.4712 17.75 14.2812 17.75C14.0913 17.75 13.9013 17.68 13.7513 17.53C13.4613 17.24 13.4613 16.76 13.7513 16.47L15.2212 15L13.7513 13.53C13.4613 13.24 13.4613 12.76 13.7513 12.47C14.0413 12.18 14.5212 12.18 14.8112 12.47L16.8113 14.47C17.1013 14.76 17.1013 15.24 16.8113 15.53ZM18.7812 9.25H16.7812C15.2613 9.25 14.0312 8.02 14.0312 6.5V4.5C14.0312 4.09 14.3713 3.75 14.7812 3.75C15.1912 3.75 15.5312 4.09 15.5312 4.5V6.5C15.5312 7.19 16.0913 7.75 16.7812 7.75H18.7812C19.1912 7.75 19.5312 8.09 19.5312 8.5C19.5312 8.91 19.1912 9.25 18.7812 9.25Z" fill="currentColor"/>
</svg>

<svg xmlns="http://www.w3.org/2000/svg" width="24" height="24" viewBox="0 0 24 24" fill="none"><path d="M16.281 2h-8c-3.5 0-5 2-5 5v10c0 3 1.5 5 5 5h8c3.5 0 5-2 5-5V7c0-3-1.5-5-5-5zm-5.47 14.47c.29.29.29.77 0 1.06-.15.15-.34.22-.53.22s-.38-.07-.53-.22l-2-2a.754.754 0 0 1 0-1.06l2-2c.29-.29.77-.29 1.06 0 .29.29.29.77 0 1.06L9.341 15l1.47 1.47zm6-.94-2 2c-.15.15-.34.22-.53.22s-.38-.07-.53-.22a.754.754 0 0 1 0-1.06l1.47-1.47-1.47-1.47a.754.754 0 0 1 0-1.06c.29-.29.77-.29 1.06 0l2 2c.29.29.29.77 0 1.06zm1.97-6.28h-2c-1.52 0-2.75-1.23-2.75-2.75v-2c0-.41.34-.75.75-.75s.75.34.75.75v2c0 .69.56 1.25 1.25 1.25h2c.41 0 .75.34.75.75s-.34.75-.75.75z" fill="currentColor"/></svg>
